X:1
T:Title
%%score { 1 | 2 }
L:1/8
M:4/4
K:Ab
V:1 treble nm="Grand Piano"
V:2 bass 
V:1
 z4 z2 z[Q:1/4=92] [Ec] | [Ec][Ec][DB][CA] [Ec]2 [EA][EA] | [FB][FA][EG][DF] [CE]3 [CE] | %3
 [DF][EG][EA]B c2 AA | ccBA B3 [Ec] | [Ec][Ec][DB][CA] [Ec]2 [EA][EA] | %6
 [FB][FA][EG][DF] [CE]3 [CE] | [DF][EG][EA]B c2 [Ee][Fd] | cB A>G [CA]4 | %9
 [Fd][Fd] [Fd]>[Fd] [Fd]4 | [Ec][Ec] [Ec]>[Ec] [Ec]3 c |[M:7/8] eed c e2 c |[M:1/8] c | %13
[M:4/4] BB [=DB]>[Dc] [EB]4 | [Fd][Fd] [Fd]>[Fd] [Fd]4 | [Ec][Ec] [Ec]>[Ec] [Ec]3 c | %16
[M:7/8] eed c e2 c |[M:1/8] [Fd] |[M:7/8] cBA>G [CA]3 |] %19
V:2
 z4 z2 z [A,,A,] | [A,,A,][A,,A,][A,,E,][A,,E,] [A,,A,]2 [C,A,][C,A,] | %2
 [D,A,][D,A,][D,A,][D,A,] [A,,A,]3 [A,,A,] | [D,A,][D,B,][C,A,][E,G,E] [A,E]2 [A,CE][A,CE] | %4
 [A,E][A,E][G,B,E][F,B,=D] [E,G,E]3 [A,,A,] | [A,,A,][A,,A,][A,,E,][A,,E,] [A,,A,]2 [C,A,][C,A,] | %6
 [D,A,][D,A,][D,A,][D,A,] [A,,A,]3 [A,,A,] | [D,A,][D,B,][C,A,][E,G,E] [A,E]2 [C,A,][D,A,] | %8
 [E,A,E][E,DE] [E,CE]>[E,B,D] [A,,A,]4 | [D,A,][D,A,] [D,A,]>[D,A,] [D,A,]4 | %10
 [A,,A,][A,,A,] [A,,A,]>[A,,A,] [A,,A,]3 [A,E] |[M:7/8] [A,CE][A,CE][A,B,E] [A,E] [A,CE]2 [A,E] | %12
[M:1/8] [A,E] |[M:4/4] [E,G,E][E,G,E] [B,,A,]>[B,,A,] [E,G,]4 | %14
 [D,A,][D,A,] [D,A,]>[D,A,] [D,A,]4 | [A,,A,][A,,A,] [A,,A,]>[A,,A,] [A,,A,]3 [A,E] | %16
[M:7/8] [A,CE][A,CE][A,B,E] [A,E] [A,CE]2 [A,E] |[M:1/8] [D,A,] | %18
[M:7/8] [E,A,E][E,DE][E,CE]>[E,B,D] [A,,A,]3 |] %19

